X:1
T:Venevil
T:W. Peterson-Berger (1867-1942)
T:Björnstjerna Björnson
T:Venevil
T:Ur "Arne"
T:©PA
T:©PA
T:©PA
T:©PA
C:W. Peterson-Berger (1867-1942)
Z:©PA
%%score [ 1 2 3 4 ]
L:1/8
Q:1/4=70
M:6/8
K:Dmin
V:1 treble nm="S"
V:2 treble nm="A"
V:3 treble-8 nm="T"
V:4 bass nm="B"
V:1
"^Rörligt, behagfullt" z | z6 | z2 z z2!p! A | A>BG AFA | (d/>e/d/) z/ c A2 F | G>FE D3- | %6
w: ||Hon|Ve- ne- vil dan- sa- de|lätt, * * på fot sin|hjärt- vän e- mot.|
 D3- D2!f! A | d>ed c>d c/A/ | G2 G B2 (F/G/) | A2 (F/A/) !fermata!d2!p! d | c>f c/A/ FFA | %11
w: * * Han|sjöng så det hör- des ge- nom|sock- nar sju; God *|mor- gon * du! Och|sko- gens al- la va- kor de|
 G>A G/A/ F2"^cresc." A | G2 B A2 G/A/ | B>cd c2 A | G>F E/F/ A>F E/D/ | c>D!>(!E G2 F!>)! | %16
w: sjö- ngo i ett nu: Till|Sank- te Hans är det|le- kar och dans, men|se- dan tror jag knap- past att hon|flä- tar sin krans, men|
!<(! D>F A/!<)!d/!f! e>d B/G/ | F>GE D3- | D3- D3 |] %19
w: se- dan tror jag knap- past att hon|flä- tar sin krans.||
V:2
 z | z6 | z2 z z2!p! F | F>GE FDE | (F/>G/F/) z/ E F2 D | E>D^C D3- | D3- D2!f! A | A>cA G>B G/F/ | %8
w: ||Hon|Ve- ne- vil dan- sa- de|lätt, * * på fot sin|hjärt- vän e- mot.|* * Han|sjöng så det hör- des ge- nom|
 E2 E F2 F | F2 F !fermata!F2!p! F | F>A F/C/ FFF | F>E D/E/ F2"^cresc." F | F2 F F2 F/F/ | %13
w: sock- nar sju; God|mor- gon du! Och|sko- gens al- la va- kor de|sjö- ngo i ett nu: Till|Sank- te Hans är det|
 F>FF A2 F | E>D ^C/=C/ B,2 (E/D/) | C2!>(! C E2!>)! D | z2 F!f! G>F E/D/ | E>D^C D3- | D3- D3 |] %19
w: le- kar och dans, men|se- dan tror jag knap- past *|att hon flä- tar|jag knap- past att hon|flä- tar sin krans.||
V:3
!p! A | A2 B A2 A | A2 B A2 A | A2 B A2 A | A2 B A2 A | A2 B A2 A | A2 B A2!f! A | f>gf e>f e/d/ | %8
w: Hon|Ve- ne- vil, hon|Ve- ne- vil, hon|dan- sa- de så|lätt, så lätt på|fot sin hjärt- e-|vän e- mot. Han|sjöng så det hör- des ge- nom|
 B2 B d2 d | c2 c !fermata!=B2!p! _B | A>c A/F/ AAc | B>c B/c/ A2"^cresc." c | B2 d c2 B/c/ | %13
w: sock- nar sju; God|mor- gon du! Och|sko- gens al- la va- kor de|sjö- ngo i ett nu: Till|Sank- te Hans är det|
 d>cB e2 d | A2 A f2 =B | c>=B!>(!_B (A3!>)! |!<(! c>)c=B!<)!!f! _B2 d/B/ | d>dA D2 A | A2 B A3 |] %19
w: le- kar och dans, men|se- dan tror jag|knappt att hon flä-|* tar sin krans, att hon|flä- tar sin krans, hon|Ve- ne- vil.|
V:4
!p! D, | D,2 G, D,2 D, | D,2 G, D,2 D, | D,2 G, D,2 D, | D,2 G, D,2 D, | D,2 G, D,2 D, | %6
w: Hon|Ve- ne- vil, hon|Ve- ne- vil, hon|dan- sa- de så|lätt, så lätt på|fot sin hjärt- e-|
 D,2 G, D,2 z | z6 | z2 z z2!f! D | G,2 D, !fermata!G,,2!p! G, | C,2 C, C,2 C, | %11
w: vän e- mot.||God|mor- gon du! Och|al- la sko- gens|
 C,2 C, C,2"^cresc." C, | D,2 G,, C,2 D,/C,/ | G,>A,B, C2 D | D,3 (G,,2 G,) | C,3!>(! D,3!>)! | %16
w: va- kor sjöng: Till|Sank- te Hans är det|le- kar och dans, men|se- dan *|tror jag|
!<(! G,2!<)! G,!f! G,,2 G, | A,>A,A,, D,2 D, | D,2 G, D,3 |] %19
w: knap- past att hon|flä- tar sin krans, hon|Ve- ne- vil.|

